X: 4372
T: Bonanza
R: hornpipe
M: 4/4
K: Dmajor
|:(3ABc|d>A (3def e>gf>a|g>B (3fga g>be>g|f>af>d B>ge>c|d>cd>b a>A (3ABc|
d>cd>f e>^de>g|f>^ef>a g>fg>b|a>f (3def e>gc>e|d2 f2 d2:|
|:c>f|g>ec>e A>ce>g|f>dA>d F>Ad>f|e>^dg>e c>eA>c|d>A (3def [a2A2] (3agf|
g>be>g A>c e2|f>af>d F>A d2|e>gc>e E>A (3c[Bd][Ae]|d2 [A2f2] [D2d2]:|

